!!!ONB: MCCC : ILB0168_04 : Extracted Monophonic Melody
!!!COM: Beethoven, Ludwig van
!!!OPR: Piano Sonata No.7
!!!OMV: 4
!!!SCT: Op.10 No.3
!!!ODT: 1797///
**kern
*thru
*staff1
*clefG2
*k[f#c#]
*D:
*M4/4
*MM120
8f#
=1
8g
8b
4r
4r
8r
8f#
=2
8g
8b
4r
4r
4r
=3
8a
8dd
8cc#
8gg
8ff#
8bb
8aa
8eee[
=4
16eee]
16ddd
16ccc#
16bb
16aa
16gg#
16ddd
16gg#
4bb
8aa
8f#
=5
8g
8b
8r
8a#
8b
8dd
8r
8cc#
=6
8dd
8ff#
2r
8.e
16d
=7
4d
4r
4r
8r
8ff#
=8
8gg
8bb
8r
8b
4d
8.e
16d
=9
4d
4r
4r
[4gg
=10
8gg]
8ff#
8gg
8aa
8bb
8bb
8ccc#
8ddd
=11
4ddd
8aa
8r
4r
[4g
=12
8g]
8f#
8g
8a
8a#
8b
8cc#
8dd
=13
4dd
8a
8r
16r
16ddd
16ccc#
16ddd
16eee
16ddd
16ccc#
16ddd
=14
16r
16ddd
16ccc#
16ddd
16eee
16ddd
16ccc#
16ddd
16r
16ddd
16ccc#
16ddd
16eee
16ddd
16ccc#
16ddd
=15
16r
16ddd
16ccc#
16ddd
16eee
16ddd
16ccc#
16ddd
16r
16aa
16gg#
16aa
16bb
16aa
16gg#
16aa
=16
16gg#
16ddd
16ccc#
16bb
16aa
16gg#
16ff#
16ee
12dd
12cc#
12b
12a
12g#
12f#
=17
[4e
16e]
16f
16f#
16g
[4g#
16g#]
16a
16a#
16b
=18
16b#
16cc#
16dd
16dd#
16ee
16ff
16ff#
16gg
16gg#
16aa
16aa#
16bb
16ccc
16ccc#
16ddd
16ddd#
=19
[4eee
16eee]
16ddd#
16ddd
16ccc#
[4bb
16bb]
16ccc#
16ddd
16gg#
=20
[4aa
16aa]
16bb#
16ccc#
16dd#
16ee
16gg#
16aa
16ee
16dd
16cc#
16b
16a
=21
[4e
16e]
16f
16f#
16g
[4g#
16g#]
16a
16a#
16b
=22
16b#
16cc#
16dd
16dd#
16ee
16ff
16ff#
16gg
16gg#
16aa
16aa#
16bb
16ccc
16ccc#
16ddd
16ddd#
=23
4.eee
16ddd
16ccc#
16bb
16aa
16gg#
16aa
16ff#
16gg
16ee
16cc#
=24
2g[
4.g]
8f#
=25
8g
8b
4r
4r
8r
8f#
=26
8g
8b
2.r
=27
8a
8dd
8cc#
8gg
8ff#
8bb
8aa
8eee[
=28
16eee]
16ddd
16ccc#
16bb
16aa
16gg#
16ddd
16gg#
4bb
8aa
8f#
=29
8g
8b
8r
8a#
8b
8dd
8r
8cc#
=30
8dd
8ff#
2r
8.e
16d
=31
4d
4r
4r
8r
8ff#
=32
8gg
8bb
8r
8b
4d
8.e
16d
=33
[2d
8d]
8f
8d
8B-
=34
8r
8dd
8b-
8f
8r
8ff
8dd
8b-
=35
*k[]
8r
4fff
16ddd
16bb-
8ff
8dd
8b-
8f
=36
8d
8B-
8A
8a
8c
8cc
8e-
8ee-
=37
8dd
4ddd
16bb-
16gg
8dd
8b-
8g
8d
=38
8B-
8G
8F#
8f#
8A
8a
8c
8cc
=39
8b-
4bb-
16gg
16ee-
8b-
8g
8e-
8B-
=40
8G
8E-
8D
8d
8F
8f
8A-
8a-
=41
8r
8E-[
16E-]
16G
16B-
16A-
16G
16B-
16e-
16d
16e-
16B-
16g
16f
=42
16e-
16g
16b-
16a-
16g
16b-
16ee-
16dd
16ee-
16b-
16gg
16ff
16ee-
16gg
16bb-
16aa-
=43
16gg
16ee-
16bb-
16aa-
16gg
16ee-
16bb-
16aa-
16gg
16ee-
16bb-
16aa-
16gg
16ee-
16bb-
16aa-
=44
16gg
16dd-
16ddd-
16ccc
16bb
16dd-
16ddd-
16ccc
16bb
16dd-
16ddd-
16ccc
16bb
16dd-
16ddd-
16ccc
=45
2bb-[
4.bb-]
8a
=46
8b-
8dd
2r
8r
8a
=47
8b-
8dd
2.r
=48
8cc
8ff
8ee
8bb-
8aa
4ddd
8ccc#
=49
2r
4r
8r
8BB-
=50
8AA
8D
8C#
8G
8F
8B-
8A
8d
=51
8c#
8g
8f
8b-
8a
8dd
8cc#
8gg
=52
8ff#
8a
8g#
8ff
8ee
8g
8f#
8ee-
=53
8dd
8f
8e
8cc#
8e-
8cc
8d
8b
=54
8c#
8b-
8c
8a
8B
8g#
8B-
8g
=55
[2g
4.g]
*k[f#c#]
8f#
=56
8g
8b
2r
8r
8f#
=57
8g
8b
2.r
=58
8a
8dd
8cc#
8gg
8ff#
8bb
8aa
8eee[
=59
16eee]
16ddd
16ccc#
16bb
16aa
16gg#
16ddd
16gg#
4bb
8aa
8f#
=60
8g
8b
8r
8a#
8b
8dd
8r
8cc#
=61
8dd
8ff#
8r
8b
4d
8.e
16d
=62
4d
4r
4r
8r
8ff#
=63
8gg
8bb
8r
8b
4d
8.e
16d
=64
4d
4r
4r
[4gg
=65
8gg]
8ff#
8gg
8aa
8bb
8bb
8ccc#
8ddd
=66
4ddd
8aa
8r
4r
[4g
=67
8g]
8f#
8g
8a
8a#
8b
8dd
8cc
=68
16b
16gg
16ff#
16gg
16aa
16gg
16ff#
16gg
16r
16gg
16ff#
16gg
16aa
16gg
16ff#
16gg
=69
16r
16gg
16ff#
16gg
16aa
16gg
16ff#
16gg
16r
16gg
16ff#
16gg
16aa
16gg
16ff#
16gg
=70
16r
16gg
16ff#
16gg
16aa
16gg
16ff#
16gg
16r
16gg
16ff#
16gg
16aa
16gg
16ff#
16gg
=71
16ff#
16gg
16aa
16gg
20ff#
20gg
20gg#
20aa
20aa
20bb#
20ccc
20ccc
20ddd
20ccc#
16eee
16ddd
16ccc#
16bb#
=72
16aa#
16ccc#
16aa#
16ff#
16ee#
16ff#
16ccc#
16ff#
16ddd
16bb
16ff#
16ddd
16dd
16bb
16gg#
16dd
=73
16aa#
16ff#
16cc#
16ff#
16ee#
16ff#
16ccc#
16ff#
16ddd
16bb
16ff#
16ddd
16dd
16bb
16gg#
16dd
=74
8aa#
8ccc#
8ccc#
8ccc#
8ccc#
8ccc#
8ccc#
8ccc#
=75
8ccc#
8ccc#
8ccc#
8ccc#
8ccc#
8ccc#
8ccc#
8ccc#
=76
8ccc#
8ccc#
8ccc#
8ccc#
8ccc#
8ccc#
8ccc#
8ccc#
=77
8ddd-
8ddd-
8ddd-
8ddd-
8ddd-
8ddd-
8ddd-
8ddd-
=78
8ddd
8ddd
8ddd
8ddd
8eee-
8eee-
8eee-
8eee-
=79
8eee
8eee
8eee
8eee
8fff
8fff
8fff
8fff
=80
16ccc#
16eee
16ccc#
16aa
16fff
16ddd
16fff
16ddd
16bb
16ddd
16bb
16gg#
16ff
16gg#
16bb
16ddd
=81
16ccc#
16aa
16ee
16cc#
16ff
16dd
16b
16g#
16f
16d
16B
16G#
16F
16G#
16B
16d
=82
16c#
16A
16c#
16e
16a
16e
16c#
16A
16e
16c#
16A
16E
16c#
16A
16E
16C#
=83
2.r
8r
8f#
=84
8g
8b
2r
8r
8f#
=85
8g
8b
2.r
=86
8a
8dd
8cc#
8gg
8ff#
8bb
8aa
[8ee
=87
16ee]
16dd
16cc#
16b
16a
16g#
16dd
16g#
4b
8a
8f#
=88
8g
8b
2.r
=89
8dd
8ff#
8r
8b
4d
8.e
16d
=90
4d
4r
4r
8r
8ff#
=91
8gg
8bb
24r
24B
24A
24G
24F#
24E
4D
8F#
8E
=92
4D
8r
8F#
8G
8B
8d
8c
=93
8B
8G
8r
8A#
8B
8d
8f#
8e
=94
8d
8B
8r
8c#
8d
8f#
8aa
8gg
=95
8ff#
8dd
8r
8c#
8d
8f#
8aa
8gg
=96
8ff#
8dd
8bb
8aa
8gg
8ee
8ccc#
8bb
=97
8aa
8ff#
8ddd
8ccc
8bb
8gg
8eee
8ddd
=98
1ddd
=99
2c#[
4.c#]
8r
=100
2r
2r
=101
8r
8dd
8b-
8g
4r
8r
8b-[
=102
8b-]
4b-
8b-
8a-
4a-
8a-[
=103
8a-]
4a-
8a-
8g
4g
8g
=104
8g
4g
8g
8f#
4f#
8f#
=105
8e
4e
8e
8e
4e
8e
=106
16r
16E
16F#
16G
16G#
16A
16B-
16B
16c
16c#
16d
16d#
16e
16f
16f#
16g
=107
16g#
16a
16b-
16b
16cc
16cc#
16dd
16dd#
16ee
16ff
16ff#
16gg
24gg#
24aa
24bb-
24bb
24ccc
24ccc#
=108
16ddd
16ccc
16bb
16bb-
16aa
16gg#
16gg
16ff#
16ff
16ee
16ee-
16dd
16cc#
16cc
16b
16b-
=109
16a
16g#
16g
16f#
16f
16e
16e-
16d
16c#
16B
16A
16G
16F#
16E
16D
16C#
=110
8r
16F#
16A
16d
16f#
16a
16d
16c#
16A
16c#
16e
16g
16a
16cc#
16a
=111
16dd
16d
16f#
16a
16dd
16ff#
16aa
16dd
16cc#
16a
16cc#
16ee
16gg
16aa
16ccc#
16aa
=112
16ddd
16aa
16ff#
16dd
16a
16dd
16a
16f#
16d
16A
16F#
16A
4r
=113
2r
4r
8r
==
*-
